; generated by Slic3r 0.9.6-dev on 2013-01-04 at 21:12:58

; layer_height = 0.35
; perimeters = 3
; top_solid_layers = 3
; bottom_solid_layers = 3
; fill_density = 0.3
; perimeter_speed = 35
; infill_speed = 30
; travel_speed = 40
; scale = 1
; nozzle_diameter = 0.43
; filament_diameter = 3
; extrusion_multiplier = 1.00
; perimeters extrusion width = 0.50mm
; infill extrusion width = 0.50mm
; first layer extrusion width = 0.36mm

M107 ; disable fan
M104 S219 ; set temperature
G28 ; home all axes
M109 S219 ; wait for temperature to be reached
G90 ; use absolute coordinates
G21 ; set units to millimeters
G92 E0 ; reset extrusion distance
M82 ; use absolute distances for extrusion
G1 F1200.000 E-3.00000 ; retract
G92 E0 ; reset extrusion distance
G1 Z0.300 F2400.000 ; move to next layer (0)
G1 X68.180 Y35.680 ; move to first skirt point
G1 F1200.000 E3.00000 ; compensate retraction
G1 X68.560 Y35.320 F1680.000 E3.00833 ; skirt
G1 X68.980 Y35.000 E3.01674 ; skirt
G1 X69.200 Y34.850 E3.02097 ; skirt
G1 X69.420 Y34.710 E3.02512 ; skirt
G1 X69.650 Y34.580 E3.02933 ; skirt
G1 X69.880 Y34.460 E3.03346 ; skirt
G1 X70.120 Y34.350 E3.03766 ; skirt
G1 X70.370 Y34.250 E3.04195 ; skirt
G1 X70.610 Y34.160 E3.04603 ; skirt
G1 X70.860 Y34.080 E3.05020 ; skirt
G1 X71.120 Y34.010 E3.05449 ; skirt
G1 X71.370 Y33.950 E3.05858 ; skirt
G1 X71.630 Y33.900 E3.06280 ; skirt
G1 X71.890 Y33.860 E3.06698 ; skirt
G1 X72.150 Y33.830 E3.07115 ; skirt
G1 X72.680 Y33.810 E3.07959 ; skirt
G1 X107.320 Y33.810 E3.63094 ; skirt
G1 X107.850 Y33.830 E3.63938 ; skirt
G1 X108.110 Y33.860 E3.64354 ; skirt
G1 X108.370 Y33.900 E3.64773 ; skirt
G1 X108.630 Y33.950 E3.65194 ; skirt
G1 X108.880 Y34.010 E3.65604 ; skirt
G1 X109.140 Y34.080 E3.66032 ; skirt
G1 X109.390 Y34.160 E3.66450 ; skirt
G1 X109.630 Y34.250 E3.66858 ; skirt
G1 X109.880 Y34.350 E3.67286 ; skirt
G1 X110.120 Y34.460 E3.67707 ; skirt
G1 X110.350 Y34.580 E3.68120 ; skirt
G1 X110.580 Y34.710 E3.68540 ; skirt
G1 X110.800 Y34.850 E3.68955 ; skirt
G1 X111.020 Y35.000 E3.69379 ; skirt
G1 X111.440 Y35.320 E3.70219 ; skirt
G1 X111.820 Y35.680 E3.71052 ; skirt
G1 X112.180 Y36.060 E3.71886 ; skirt
G1 X112.500 Y36.480 E3.72726 ; skirt
G1 X112.650 Y36.700 E3.73150 ; skirt
G1 X112.790 Y36.920 E3.73565 ; skirt
G1 X112.920 Y37.150 E3.73985 ; skirt
G1 X113.040 Y37.380 E3.74398 ; skirt
G1 X113.150 Y37.620 E3.74819 ; skirt
G1 X113.250 Y37.870 E3.75247 ; skirt
G1 X113.340 Y38.110 E3.75655 ; skirt
G1 X113.420 Y38.360 E3.76073 ; skirt
G1 X113.490 Y38.620 E3.76501 ; skirt
G1 X113.550 Y38.870 E3.76911 ; skirt
G1 X113.600 Y39.130 E3.77332 ; skirt
G1 X113.640 Y39.390 E3.77751 ; skirt
G1 X113.670 Y39.650 E3.78167 ; skirt
G1 X113.690 Y40.180 E3.79011 ; skirt
G1 X113.690 Y79.820 E4.42104 ; skirt
G1 X113.670 Y80.350 E4.42948 ; skirt
G1 X113.640 Y80.610 E4.43365 ; skirt
G1 X113.600 Y80.870 E4.43784 ; skirt
G1 X113.550 Y81.130 E4.44205 ; skirt
G1 X113.490 Y81.380 E4.44614 ; skirt
G1 X113.420 Y81.640 E4.45043 ; skirt
G1 X113.340 Y81.890 E4.45461 ; skirt
G1 X113.250 Y82.130 E4.45869 ; skirt
G1 X113.150 Y82.380 E4.46297 ; skirt
G1 X113.040 Y82.620 E4.46717 ; skirt
G1 X112.920 Y82.850 E4.47130 ; skirt
G1 X112.790 Y83.080 E4.47551 ; skirt
G1 X112.650 Y83.300 E4.47966 ; skirt
G1 X112.500 Y83.520 E4.48390 ; skirt
G1 X112.180 Y83.940 E4.49230 ; skirt
G1 X111.820 Y84.320 E4.50063 ; skirt
G1 X111.440 Y84.680 E4.50896 ; skirt
G1 X111.020 Y85.000 E4.51737 ; skirt
G1 X110.800 Y85.150 E4.52161 ; skirt
G1 X110.580 Y85.290 E4.52576 ; skirt
G1 X110.350 Y85.420 E4.52996 ; skirt
G1 X110.120 Y85.540 E4.53409 ; skirt
G1 X109.880 Y85.650 E4.53829 ; skirt
G1 X109.630 Y85.750 E4.54258 ; skirt
G1 X109.390 Y85.840 E4.54666 ; skirt
G1 X109.140 Y85.920 E4.55084 ; skirt
G1 X108.880 Y85.990 E4.55512 ; skirt
G1 X108.630 Y86.050 E4.55921 ; skirt
G1 X108.370 Y86.100 E4.56343 ; skirt
G1 X108.110 Y86.140 E4.56761 ; skirt
G1 X107.850 Y86.170 E4.57178 ; skirt
G1 X107.320 Y86.190 E4.58022 ; skirt
G1 X72.680 Y86.190 E5.13157 ; skirt
G1 X72.150 Y86.170 E5.14001 ; skirt
G1 X71.890 Y86.140 E5.14417 ; skirt
G1 X71.630 Y86.100 E5.14836 ; skirt
G1 X71.370 Y86.050 E5.15258 ; skirt
G1 X71.120 Y85.990 E5.15667 ; skirt
G1 X70.860 Y85.920 E5.16095 ; skirt
G1 X70.610 Y85.840 E5.16513 ; skirt
G1 X70.370 Y85.750 E5.16921 ; skirt
G1 X70.120 Y85.650 E5.17350 ; skirt
G1 X69.880 Y85.540 E5.17770 ; skirt
G1 X69.650 Y85.420 E5.18183 ; skirt
G1 X69.420 Y85.290 E5.18603 ; skirt
G1 X69.200 Y85.150 E5.19018 ; skirt
G1 X68.980 Y85.000 E5.19442 ; skirt
G1 X68.560 Y84.680 E5.20283 ; skirt
G1 X68.180 Y84.320 E5.21116 ; skirt
G1 X67.820 Y83.940 E5.21949 ; skirt
G1 X67.500 Y83.520 E5.22789 ; skirt
G1 X67.350 Y83.300 E5.23213 ; skirt
G1 X67.210 Y83.080 E5.23628 ; skirt
G1 X67.080 Y82.850 E5.24049 ; skirt
G1 X66.960 Y82.620 E5.24462 ; skirt
G1 X66.850 Y82.380 E5.24882 ; skirt
G1 X66.750 Y82.130 E5.25310 ; skirt
G1 X66.660 Y81.890 E5.25718 ; skirt
G1 X66.580 Y81.640 E5.26136 ; skirt
G1 X66.510 Y81.380 E5.26565 ; skirt
G1 X66.450 Y81.130 E5.26974 ; skirt
G1 X66.400 Y80.870 E5.27395 ; skirt
G1 X66.360 Y80.610 E5.27814 ; skirt
G1 X66.330 Y80.350 E5.28230 ; skirt
G1 X66.310 Y79.820 E5.29075 ; skirt
G1 X66.310 Y40.180 E5.92167 ; skirt
G1 X66.330 Y39.650 E5.93012 ; skirt
G1 X66.360 Y39.390 E5.93428 ; skirt
G1 X66.400 Y39.130 E5.93847 ; skirt
G1 X66.450 Y38.870 E5.94268 ; skirt
G1 X66.510 Y38.620 E5.94677 ; skirt
G1 X66.580 Y38.360 E5.95106 ; skirt
G1 X66.660 Y38.110 E5.95524 ; skirt
G1 X66.750 Y37.870 E5.95932 ; skirt
G1 X66.850 Y37.620 E5.96360 ; skirt
G1 X66.960 Y37.380 E5.96781 ; skirt
G1 X67.080 Y37.150 E5.97193 ; skirt
G1 X67.210 Y36.920 E5.97614 ; skirt
G1 X67.350 Y36.700 E5.98029 ; skirt
G1 X67.500 Y36.480 E5.98453 ; skirt
G1 X67.820 Y36.060 E5.99293 ; skirt
G1 X68.180 Y35.680 E6.00126 ; skirt
G1 F1200.000 E3.00126 ; retract
G92 E0 ; reset extrusion distance
G1 X77.526 Y43.572 F2400.000 ; move to first perimeter point
G1 F1200.000 E3.00000 ; compensate retraction
G1 X80.000 Y42.143 F1200.000 E3.04547 ; perimeter
G1 X82.474 Y43.572 E3.09093 ; perimeter
G1 X82.474 Y46.428 E3.13640 ; perimeter
G1 X80.000 Y47.857 E3.18187 ; perimeter
G1 X77.526 Y46.428 E3.22733 ; perimeter
G1 X77.526 Y43.572 E3.27280 ; perimeter
G1 X77.894 Y43.784 F2400.000 ; move to first perimeter point
G1 X80.000 Y42.568 F1200.000 E3.31151 ; perimeter
G1 X82.106 Y43.784 E3.35022 ; perimeter
G1 X82.106 Y46.216 E3.38894 ; perimeter
G1 X80.000 Y47.432 E3.42765 ; perimeter
G1 X77.894 Y46.216 E3.46636 ; perimeter
G1 X77.894 Y43.784 E3.50507 ; perimeter
G1 X78.261 Y43.996 F2400.000 ; move to first perimeter point
G1 X80.000 Y42.992 F1200.000 E3.53703 ; perimeter
G1 X81.739 Y43.996 E3.56899 ; perimeter
G1 X81.739 Y46.004 E3.60095 ; perimeter
G1 X80.000 Y47.008 E3.63290 ; perimeter
G1 X78.261 Y46.004 E3.66486 ; perimeter
G1 X78.261 Y43.996 E3.69682 ; perimeter
G1 F1200.000 E0.69682 ; retract
G92 E0 ; reset extrusion distance
G1 X97.526 Y43.572 F2400.000 ; move to first perimeter point
G1 F1200.000 E3.00000 ; compensate retraction
G1 X100.000 Y42.143 F1200.000 E3.04547 ; perimeter
G1 X102.474 Y43.572 E3.09093 ; perimeter
G1 X102.474 Y46.428 E3.13640 ; perimeter
G1 X100.000 Y47.857 E3.18186 ; perimeter
G1 X97.526 Y46.428 E3.22733 ; perimeter
G1 X97.526 Y43.572 E3.27280 ; perimeter
G1 X97.894 Y43.784 F2400.000 ; move to first perimeter point
G1 X100.000 Y42.568 F1200.000 E3.31151 ; perimeter
G1 X102.106 Y43.784 E3.35022 ; perimeter
G1 X102.106 Y46.216 E3.38893 ; perimeter
G1 X100.000 Y47.432 E3.42764 ; perimeter
G1 X97.894 Y46.216 E3.46635 ; perimeter
G1 X97.894 Y43.784 E3.50507 ; perimeter
G1 X98.261 Y43.996 F2400.000 ; move to first perimeter point
G1 X100.000 Y42.992 F1200.000 E3.53702 ; perimeter
G1 X101.739 Y43.996 E3.56898 ; perimeter
G1 X101.739 Y46.004 E3.60094 ; perimeter
G1 X100.000 Y47.008 E3.63290 ; perimeter
G1 X98.261 Y46.004 E3.66485 ; perimeter
G1 X98.261 Y43.996 E3.69681 ; perimeter
G1 F1200.000 E0.69681 ; retract
G92 E0 ; reset extrusion distance
G1 X100.000 Y72.143 F2400.000 ; move to first perimeter point
G1 F1200.000 E3.00000 ; compensate retraction
G1 X102.474 Y73.572 F1200.000 E3.04547 ; perimeter
G1 X102.474 Y76.428 E3.09093 ; perimeter
G1 X100.000 Y77.857 E3.13640 ; perimeter
G1 X97.526 Y76.428 E3.18186 ; perimeter
G1 X97.526 Y73.572 E3.22733 ; perimeter
G1 X100.000 Y72.143 E3.27280 ; perimeter
G1 X100.000 Y72.568 F2400.000 ; move to first perimeter point
G1 X102.106 Y73.784 F1200.000 E3.31151 ; perimeter
G1 X102.106 Y76.216 E3.35022 ; perimeter
G1 X100.000 Y77.432 E3.38893 ; perimeter
G1 X97.894 Y76.216 E3.42764 ; perimeter
G1 X97.894 Y73.784 E3.46636 ; perimeter
G1 X100.000 Y72.568 E3.50507 ; perimeter
G1 X100.000 Y72.992 F2400.000 ; move to first perimeter point
G1 X101.739 Y73.996 F1200.000 E3.53702 ; perimeter
G1 X101.739 Y76.004 E3.56898 ; perimeter
G1 X100.000 Y77.008 E3.60094 ; perimeter
G1 X98.261 Y76.004 E3.63290 ; perimeter
G1 X98.261 Y73.996 E3.66485 ; perimeter
G1 X100.000 Y72.992 E3.69681 ; perimeter
G1 F1200.000 E0.69681 ; retract
G92 E0 ; reset extrusion distance
G1 X96.419 Y68.835 F2400.000 ; move to first perimeter point
G1 F1200.000 E3.00000 ; compensate retraction
G1 X94.442 Y69.976 F1680.000 E3.03634 ; perimeter
G1 X92.270 Y70.681 E3.07267 ; perimeter
G1 X90.000 Y70.920 E3.10901 ; perimeter
G1 X87.730 Y70.681 E3.14534 ; perimeter
G1 X85.558 Y69.976 E3.18168 ; perimeter
G1 X83.581 Y68.835 E3.21802 ; perimeter
G1 X81.885 Y67.307 E3.25435 ; perimeter
G1 X80.543 Y65.460 E3.29069 ; perimeter
G1 X79.614 Y63.374 E3.32702 ; perimeter
G1 X79.140 Y61.141 E3.36336 ; perimeter
G1 X79.140 Y58.859 E3.39970 ; perimeter
G1 X79.614 Y56.626 E3.43603 ; perimeter
G1 X80.543 Y54.540 E3.47237 ; perimeter
G1 X81.885 Y52.693 E3.50870 ; perimeter
G1 X83.581 Y51.165 E3.54504 ; perimeter
G1 X85.558 Y50.024 E3.58137 ; perimeter
G1 X87.730 Y49.319 E3.61771 ; perimeter
G1 X90.000 Y49.080 E3.65405 ; perimeter
G1 X92.270 Y49.319 E3.69038 ; perimeter
G1 X94.442 Y50.024 E3.72672 ; perimeter
G1 X96.419 Y51.165 E3.76306 ; perimeter
G1 X98.115 Y52.693 E3.79939 ; perimeter
G1 X99.457 Y54.540 E3.83573 ; perimeter
G1 X100.386 Y56.626 E3.87206 ; perimeter
G1 X100.860 Y58.859 E3.90840 ; perimeter
G1 X100.860 Y61.141 E3.94473 ; perimeter
G1 X100.386 Y63.374 E3.98107 ; perimeter
G1 X99.457 Y65.460 E4.01741 ; perimeter
G1 X98.115 Y67.307 E4.05374 ; perimeter
G1 X96.419 Y68.835 E4.09008 ; perimeter
G1 X96.202 Y68.536 F2400.000 ; move to first perimeter point
G1 X94.291 Y69.638 F1680.000 E4.12518 ; perimeter
G1 X92.194 Y70.320 E4.16029 ; perimeter
G1 X90.000 Y70.551 E4.19540 ; perimeter
G1 X87.806 Y70.320 E4.23050 ; perimeter
G1 X85.709 Y69.638 E4.26561 ; perimeter
G1 X83.798 Y68.536 E4.30072 ; perimeter
G1 X82.159 Y67.060 E4.33582 ; perimeter
G1 X80.863 Y65.275 E4.37093 ; perimeter
G1 X79.966 Y63.260 E4.40603 ; perimeter
G1 X79.507 Y61.103 E4.44114 ; perimeter
G1 X79.507 Y58.897 E4.47625 ; perimeter
G1 X79.966 Y56.740 E4.51135 ; perimeter
G1 X80.863 Y54.725 E4.54646 ; perimeter
G1 X82.159 Y52.940 E4.58157 ; perimeter
G1 X83.799 Y51.464 E4.61667 ; perimeter
G1 X85.709 Y50.362 E4.65178 ; perimeter
G1 X87.806 Y49.680 E4.68688 ; perimeter
G1 X90.000 Y49.449 E4.72199 ; perimeter
G1 X92.194 Y49.680 E4.75710 ; perimeter
G1 X94.291 Y50.362 E4.79220 ; perimeter
G1 X96.201 Y51.464 E4.82731 ; perimeter
G1 X97.841 Y52.940 E4.86241 ; perimeter
G1 X99.137 Y54.725 E4.89752 ; perimeter
G1 X100.034 Y56.740 E4.93263 ; perimeter
G1 X100.493 Y58.897 E4.96773 ; perimeter
G1 X100.493 Y61.103 E5.00284 ; perimeter
G1 X100.034 Y63.260 E5.03795 ; perimeter
G1 X99.137 Y65.275 E5.07305 ; perimeter
G1 X97.841 Y67.060 E5.10816 ; perimeter
G1 X96.202 Y68.536 E5.14326 ; perimeter
G1 X95.984 Y68.237 F2400.000 ; move to first perimeter point
G1 X94.141 Y69.301 F1344.000 E5.17714 ; perimeter
G1 X92.117 Y69.959 E5.21102 ; perimeter
G1 X90.000 Y70.181 E5.24490 ; perimeter
G1 X87.883 Y69.959 E5.27877 ; perimeter
G1 X85.859 Y69.301 E5.31265 ; perimeter
G1 X84.016 Y68.237 E5.34653 ; perimeter
G1 X82.434 Y66.812 E5.38040 ; perimeter
G1 X81.183 Y65.090 E5.41428 ; perimeter
G1 X80.317 Y63.146 E5.44816 ; perimeter
G1 X79.875 Y61.064 E5.48203 ; perimeter
G1 X79.875 Y58.936 E5.51591 ; perimeter
G1 X80.317 Y56.854 E5.54978 ; perimeter
G1 X81.183 Y54.910 E5.58366 ; perimeter
G1 X82.434 Y53.188 E5.61754 ; perimeter
G1 X84.016 Y51.763 E5.65141 ; perimeter
G1 X85.859 Y50.699 E5.68529 ; perimeter
G1 X87.883 Y50.041 E5.71917 ; perimeter
G1 X90.000 Y49.819 E5.75304 ; perimeter
G1 X92.117 Y50.041 E5.78692 ; perimeter
G1 X94.141 Y50.699 E5.82080 ; perimeter
G1 X95.984 Y51.763 E5.85468 ; perimeter
G1 X97.566 Y53.188 E5.88855 ; perimeter
G1 X98.817 Y54.910 E5.92243 ; perimeter
G1 X99.683 Y56.854 E5.95631 ; perimeter
G1 X100.125 Y58.936 E5.99018 ; perimeter
G1 X100.125 Y61.064 E6.02406 ; perimeter
G1 X99.683 Y63.146 E6.05793 ; perimeter
G1 X98.817 Y65.090 E6.09181 ; perimeter
G1 X97.566 Y66.812 E6.12569 ; perimeter
G1 X95.984 Y68.237 E6.15956 ; perimeter
G1 X95.625 Y68.313 F2400.000 ; move inwards before travel
G1 F1200.000 E3.15956 ; retract
G92 E0 ; reset extrusion distance
G1 X82.474 Y73.572 F2400.000 ; move to first perimeter point
G1 F1200.000 E3.00000 ; compensate retraction
G1 X82.474 Y76.428 F1200.000 E3.04547 ; perimeter
G1 X80.000 Y77.857 E3.09093 ; perimeter
G1 X77.526 Y76.428 E3.13640 ; perimeter
G1 X77.526 Y73.572 E3.18187 ; perimeter
G1 X80.000 Y72.143 E3.22733 ; perimeter
G1 X82.474 Y73.572 E3.27280 ; perimeter
G1 X82.106 Y73.784 F2400.000 ; move to first perimeter point
G1 X82.106 Y76.216 F1200.000 E3.31151 ; perimeter
G1 X80.000 Y77.432 E3.35022 ; perimeter
G1 X77.894 Y76.216 E3.38894 ; perimeter
G1 X77.894 Y73.784 E3.42765 ; perimeter
G1 X80.000 Y72.568 E3.46636 ; perimeter
G1 X82.106 Y73.784 E3.50507 ; perimeter
G1 X81.739 Y73.996 F2400.000 ; move to first perimeter point
G1 X81.739 Y76.004 F1200.000 E3.53703 ; perimeter
G1 X80.000 Y77.008 E3.56899 ; perimeter
G1 X78.261 Y76.004 E3.60095 ; perimeter
G1 X78.261 Y73.996 E3.63290 ; perimeter
G1 X80.000 Y72.992 E3.66486 ; perimeter
G1 X81.739 Y73.996 E3.69682 ; perimeter
G1 F1200.000 E0.69682 ; retract
G92 E0 ; reset extrusion distance
G1 X73.415 Y40.915 F2400.000 ; move to first perimeter point
G1 F1200.000 E3.00000 ; compensate retraction
G1 X106.585 Y40.915 F1680.000 E3.52795 ; perimeter
G1 X106.585 Y79.085 E4.13548 ; perimeter
G1 X73.415 Y79.085 E4.66342 ; perimeter
G1 X73.415 Y40.915 E5.27095 ; perimeter
G1 X73.048 Y40.548 F2400.000 ; move to first perimeter point
G1 X106.952 Y40.548 F1680.000 E5.81060 ; perimeter
G1 X106.952 Y79.452 E6.42983 ; perimeter
G1 X73.048 Y79.452 E6.96947 ; perimeter
G1 X73.048 Y40.548 E7.58870 ; perimeter
G1 X72.680 Y40.180 F2400.000 ; move to first perimeter point
G1 X107.320 Y40.180 F1344.000 E8.14005 ; perimeter
G1 X107.320 Y79.820 E8.77098 ; perimeter
G1 X72.680 Y79.820 E9.32232 ; perimeter
G1 X72.680 Y40.180 E9.95325 ; perimeter
G1 X72.864 Y39.861 F2400.000 ; move inwards before travel
G1 F1200.000 E6.95325 ; retract
G92 E0 ; reset extrusion distance
G1 X73.665 Y59.308 F2400.000 ; move to first fill point
G1 F1200.000 E3.00000 ; compensate retraction
G1 X80.927 Y66.569 F1440.000 E3.19122 ; fill
G1 X80.099 Y65.220 E3.22069 ; fill
G1 X73.665 Y58.787 E3.39011 ; fill
G1 X73.665 Y58.265 E3.39982 ; fill
G1 X79.680 Y64.280 E3.55821 ; fill
G1 X79.340 Y63.419 E3.57545 ; fill
G1 X73.665 Y57.744 E3.72489 ; fill
G1 X73.665 Y57.222 E3.73460 ; fill
G1 X79.199 Y62.756 E3.88033 ; fill
G1 X79.059 Y62.094 E3.89294 ; fill
G1 X73.665 Y56.701 E4.03496 ; fill
G1 X73.665 Y56.179 E4.04467 ; fill
G1 X78.918 Y61.432 E4.18299 ; fill
G1 X78.889 Y60.882 E4.19325 ; fill
G1 X73.665 Y55.658 E4.33081 ; fill
G1 X73.665 Y55.137 E4.34052 ; fill
G1 X78.889 Y60.360 E4.47809 ; fill
G1 X78.889 Y59.839 E4.48780 ; fill
G1 X73.665 Y54.615 E4.62536 ; fill
G1 X73.665 Y54.094 E4.63507 ; fill
G1 X78.889 Y59.318 E4.77263 ; fill
G1 X78.914 Y58.821 E4.78190 ; fill
G1 X73.665 Y53.572 E4.92011 ; fill
G1 X73.665 Y53.051 E4.92982 ; fill
G1 X79.005 Y58.391 E5.07044 ; fill
G1 X79.097 Y57.961 E5.07862 ; fill
G1 X73.666 Y52.530 E5.22165 ; fill
G1 X73.666 Y52.008 E5.23136 ; fill
G1 X79.188 Y57.531 E5.37679 ; fill
