; generated by Slic3r 0.9.6-dev on 2012-12-07 at 19:41:08

; layer_height = 0.3
; perimeters = 3
; top_solid_layers = 3
; bottom_solid_layers = 3
; fill_density = 0.3
; perimeter_speed = 35
; infill_speed = 35
; travel_speed = 40
; scale = 1
; nozzle_diameter = 0.43
; filament_diameter = 3
; extrusion_multiplier = 0.99
; perimeters extrusion width = 0.50mm
; infill extrusion width = 0.50mm
; first layer extrusion width = 0.34mm

M107 ; disable fan
M104 S222 ; set temperature
G28 ; home all axes
M109 S222 ; wait for temperature to be reached
G90 ; use absolute coordinates
G21 ; set units to millimeters
G92 E0 ; reset extrusion distance
M82 ; use absolute distances for extrusion
G1 F1200.000 E-4.00000 ; retract
G92 E0 ; reset extrusion distance
G1 Z0.280 F2400.000 ; move to next layer (0)
G1 X54.851 Y32.185 ; move to first skirt point
G1 F1200.000 E4.00000 ; compensate retraction
G1 X55.251 Y31.785 F1260.000 E4.00790 ; skirt
G1 X55.601 Y31.465 E4.01453 ; skirt
G1 X56.031 Y31.105 E4.02236 ; skirt
G1 X56.411 Y30.815 E4.02903 ; skirt
G1 X57.051 Y30.375 E4.03988 ; skirt
G1 X57.461 Y30.135 E4.04652 ; skirt
G1 X57.891 Y29.915 E4.05327 ; skirt
G1 X58.321 Y29.705 E4.05995 ; skirt
G1 X58.971 Y29.425 E4.06983 ; skirt
G1 X59.421 Y29.265 E4.07651 ; skirt
G1 X60.071 Y29.075 E4.08596 ; skirt
G1 X60.531 Y28.965 E4.09257 ; skirt
G1 X61.081 Y28.855 E4.10041 ; skirt
G1 X61.551 Y28.785 E4.10704 ; skirt
G1 X62.081 Y28.735 E4.11448 ; skirt
G1 X62.561 Y28.705 E4.12120 ; skirt
G1 X62.961 Y28.685 E4.12679 ; skirt
G1 X103.161 Y28.685 E4.68829 ; skirt
G1 X103.561 Y28.705 E4.69388 ; skirt
G1 X104.041 Y28.735 E4.70060 ; skirt
G1 X104.571 Y28.785 E4.70803 ; skirt
G1 X105.041 Y28.855 E4.71467 ; skirt
G1 X105.591 Y28.965 E4.72251 ; skirt
G1 X106.051 Y29.075 E4.72911 ; skirt
G1 X106.701 Y29.265 E4.73857 ; skirt
G1 X107.151 Y29.425 E4.74524 ; skirt
G1 X107.801 Y29.705 E4.75513 ; skirt
G1 X108.231 Y29.915 E4.76181 ; skirt
G1 X108.661 Y30.135 E4.76856 ; skirt
G1 X109.071 Y30.375 E4.77519 ; skirt
G1 X109.711 Y30.815 E4.78604 ; skirt
G1 X110.091 Y31.105 E4.79272 ; skirt
G1 X110.521 Y31.465 E4.80055 ; skirt
G1 X110.871 Y31.785 E4.80717 ; skirt
G1 X111.271 Y32.185 E4.81508 ; skirt
G1 X111.591 Y32.535 E4.82170 ; skirt
G1 X111.951 Y32.965 E4.82953 ; skirt
G1 X112.241 Y33.345 E4.83621 ; skirt
G1 X112.681 Y33.985 E4.84706 ; skirt
G1 X112.901 Y34.365 E4.85319 ; skirt
G1 X123.521 Y52.275 E5.14402 ; skirt
G1 X123.661 Y52.525 E5.14802 ; skirt
G1 X123.791 Y52.775 E5.15196 ; skirt
G1 X124.011 Y53.295 E5.15985 ; skirt
G1 X124.101 Y53.565 E5.16382 ; skirt
G1 X124.181 Y53.835 E5.16776 ; skirt
G1 X124.251 Y54.115 E5.17179 ; skirt
G1 X124.311 Y54.385 E5.17565 ; skirt
G1 X124.351 Y54.665 E5.17960 ; skirt
G1 X124.381 Y54.945 E5.18353 ; skirt
G1 X124.401 Y55.235 E5.18759 ; skirt
G1 X124.411 Y55.515 E5.19151 ; skirt
G1 X124.411 Y64.475 E5.31666 ; skirt
G1 X124.401 Y64.755 E5.32057 ; skirt
G1 X124.381 Y65.045 E5.32463 ; skirt
G1 X124.351 Y65.325 E5.32856 ; skirt
G1 X124.311 Y65.605 E5.33251 ; skirt
G1 X124.251 Y65.875 E5.33638 ; skirt
G1 X124.181 Y66.155 E5.34041 ; skirt
G1 X124.101 Y66.425 E5.34434 ; skirt
G1 X124.011 Y66.695 E5.34832 ; skirt
G1 X123.791 Y67.215 E5.35620 ; skirt
G1 X123.661 Y67.465 E5.36014 ; skirt
G1 X123.521 Y67.715 E5.36414 ; skirt
G1 X112.901 Y85.625 E5.65497 ; skirt
G1 X112.681 Y86.005 E5.66111 ; skirt
G1 X112.241 Y86.645 E5.67196 ; skirt
G1 X111.951 Y87.025 E5.67863 ; skirt
G1 X111.591 Y87.455 E5.68647 ; skirt
G1 X111.271 Y87.805 E5.69309 ; skirt
G1 X110.871 Y88.205 E5.70099 ; skirt
G1 X110.521 Y88.525 E5.70761 ; skirt
G1 X110.091 Y88.885 E5.71545 ; skirt
G1 X109.711 Y89.175 E5.72212 ; skirt
G1 X109.071 Y89.615 E5.73297 ; skirt
G1 X108.661 Y89.855 E5.73961 ; skirt
G1 X108.231 Y90.075 E5.74635 ; skirt
G1 X107.801 Y90.285 E5.75304 ; skirt
G1 X107.151 Y90.565 E5.76292 ; skirt
G1 X106.701 Y90.725 E5.76959 ; skirt
G1 X106.051 Y90.915 E5.77905 ; skirt
G1 X105.591 Y91.025 E5.78566 ; skirt
G1 X105.041 Y91.135 E5.79349 ; skirt
G1 X104.571 Y91.205 E5.80013 ; skirt
G1 X104.041 Y91.255 E5.80757 ; skirt
G1 X103.561 Y91.285 E5.81428 ; skirt
G1 X103.161 Y91.305 E5.81988 ; skirt
G1 X62.961 Y91.305 E6.38138 ; skirt
G1 X62.561 Y91.285 E6.38697 ; skirt
G1 X62.081 Y91.255 E6.39369 ; skirt
G1 X61.551 Y91.205 E6.40112 ; skirt
G1 X61.081 Y91.135 E6.40776 ; skirt
G1 X60.531 Y91.025 E6.41559 ; skirt
G1 X60.071 Y90.915 E6.42220 ; skirt
G1 X59.421 Y90.725 E6.43166 ; skirt
G1 X58.971 Y90.565 E6.43833 ; skirt
G1 X58.321 Y90.285 E6.44822 ; skirt
G1 X57.891 Y90.075 E6.45490 ; skirt
G1 X57.461 Y89.855 E6.46165 ; skirt
G1 X57.051 Y89.615 E6.46828 ; skirt
G1 X56.411 Y89.175 E6.47913 ; skirt
G1 X56.031 Y88.885 E6.48581 ; skirt
G1 X55.601 Y88.525 E6.49364 ; skirt
G1 X55.251 Y88.205 E6.50026 ; skirt
G1 X54.851 Y87.805 E6.50816 ; skirt
G1 X54.531 Y87.455 E6.51479 ; skirt
G1 X54.171 Y87.025 E6.52262 ; skirt
G1 X53.881 Y86.645 E6.52930 ; skirt
G1 X53.441 Y86.005 E6.54015 ; skirt
G1 X53.201 Y85.595 E6.54678 ; skirt
G1 X52.981 Y85.165 E6.55353 ; skirt
G1 X52.771 Y84.735 E6.56021 ; skirt
G1 X52.491 Y84.085 E6.57010 ; skirt
G1 X52.331 Y83.635 E6.57677 ; skirt
G1 X52.141 Y82.985 E6.58623 ; skirt
G1 X52.031 Y82.525 E6.59283 ; skirt
G1 X51.921 Y81.975 E6.60067 ; skirt
G1 X51.851 Y81.505 E6.60731 ; skirt
G1 X51.801 Y80.975 E6.61474 ; skirt
G1 X51.771 Y80.495 E6.62146 ; skirt
G1 X51.751 Y80.095 E6.62705 ; skirt
G1 X51.751 Y39.895 E7.18855 ; skirt
G1 X51.771 Y39.495 E7.19414 ; skirt
G1 X51.801 Y39.015 E7.20086 ; skirt
G1 X51.851 Y38.485 E7.20830 ; skirt
G1 X51.921 Y38.015 E7.21493 ; skirt
G1 X52.031 Y37.465 E7.22277 ; skirt
G1 X52.141 Y37.005 E7.22937 ; skirt
G1 X52.331 Y36.355 E7.23883 ; skirt
G1 X52.491 Y35.905 E7.24550 ; skirt
G1 X52.771 Y35.255 E7.25539 ; skirt
G1 X52.981 Y34.825 E7.26207 ; skirt
G1 X53.201 Y34.395 E7.26882 ; skirt
G1 X53.441 Y33.985 E7.27546 ; skirt
G1 X53.881 Y33.345 E7.28630 ; skirt
G1 X54.171 Y32.965 E7.29298 ; skirt
G1 X54.531 Y32.535 E7.30081 ; skirt
G1 X54.851 Y32.185 E7.30744 ; skirt
G1 F1200.000 E3.30744 ; retract
G92 E0 ; reset extrusion distance
G1 X100.802 Y39.704 F2400.000 ; move to first perimeter point
G1 F1200.000 E4.00000 ; compensate retraction
G1 X100.993 Y38.947 F900.000 E4.01091 ; perimeter
G1 X101.420 Y38.293 E4.02181 ; perimeter
G1 X102.037 Y37.814 E4.03272 ; perimeter
G1 X102.775 Y37.560 E4.04363 ; perimeter
G1 X103.556 Y37.560 E4.05453 ; perimeter
G1 X104.295 Y37.814 E4.06544 ; perimeter
G1 X104.911 Y38.293 E4.07635 ; perimeter
G1 X105.338 Y38.947 E4.08725 ; perimeter
G1 X105.530 Y39.704 E4.09816 ; perimeter
G1 X105.465 Y40.482 E4.10907 ; perimeter
G1 X105.151 Y41.197 E4.11997 ; perimeter
G1 X104.622 Y41.772 E4.13088 ; perimeter
G1 X103.936 Y42.143 E4.14179 ; perimeter
G1 X103.012 Y42.298 E4.15486 ; perimeter
G1 X103.012 Y42.477 E4.15737 ; perimeter
G1 X101.709 Y41.772 E4.17808 ; perimeter
G1 X101.180 Y41.197 E4.18899 ; perimeter
G1 X100.866 Y40.482 E4.19989 ; perimeter
G1 X100.802 Y39.704 E4.21080 ; perimeter
G1 X101.151 Y39.733 F2400.000 ; move to first perimeter point
G1 X101.315 Y39.088 F900.000 E4.22009 ; perimeter
G1 X101.679 Y38.531 E4.22939 ; perimeter
G1 X102.204 Y38.122 E4.23868 ; perimeter
G1 X102.833 Y37.906 E4.24797 ; perimeter
G1 X103.498 Y37.906 E4.25727 ; perimeter
G1 X104.128 Y38.122 E4.26656 ; perimeter
G1 X104.653 Y38.531 E4.27585 ; perimeter
G1 X105.017 Y39.088 E4.28515 ; perimeter
G1 X105.180 Y39.733 E4.29444 ; perimeter
G1 X105.125 Y40.396 E4.30373 ; perimeter
G1 X104.858 Y41.005 E4.31303 ; perimeter
G1 X104.407 Y41.495 E4.32232 ; perimeter
G1 X103.822 Y41.812 E4.33161 ; perimeter
G1 X103.166 Y41.921 E4.34091 ; perimeter
G1 X102.666 Y41.838 E4.34798 ; perimeter
G1 X102.666 Y41.897 E4.34880 ; perimeter
G1 X101.924 Y41.495 E4.36058 ; perimeter
G1 X101.473 Y41.005 E4.36988 ; perimeter
G1 X101.206 Y40.396 E4.37917 ; perimeter
G1 X101.151 Y39.733 E4.38846 ; perimeter
G1 X101.501 Y39.762 F2400.000 ; move to first perimeter point
G1 X101.636 Y39.229 F900.000 E4.39614 ; perimeter
G1 X101.937 Y38.769 E4.40382 ; perimeter
G1 X102.371 Y38.431 E4.41150 ; perimeter
G1 X102.891 Y38.252 E4.41918 ; perimeter
G1 X103.441 Y38.252 E4.42686 ; perimeter
G1 X103.961 Y38.431 E4.43454 ; perimeter
G1 X104.395 Y38.769 E4.44222 ; perimeter
G1 X104.695 Y39.229 E4.44990 ; perimeter
G1 X104.830 Y39.762 E4.45758 ; perimeter
G1 X104.785 Y40.310 E4.46526 ; perimeter
G1 X104.564 Y40.814 E4.47294 ; perimeter
G1 X104.192 Y41.218 E4.48063 ; perimeter
G1 X103.708 Y41.480 E4.48831 ; perimeter
G1 X103.166 Y41.570 E4.49598 ; perimeter
G1 X102.623 Y41.480 E4.50366 ; perimeter
G1 X102.320 Y41.316 E4.50848 ; perimeter
G1 X102.320 Y41.316 E4.50848 ; perimeter
G1 X102.140 Y41.218 E4.51134 ; perimeter
G1 X101.767 Y40.814 E4.51903 ; perimeter
G1 X101.546 Y40.310 E4.52671 ; perimeter
G1 X101.501 Y39.762 E4.53439 ; perimeter
G1 F1200.000 E0.53439 ; retract
G92 E0 ; reset extrusion distance
G1 X65.330 Y39.704 F2400.000 ; move to first perimeter point
G1 F1200.000 E4.00000 ; compensate retraction
G1 X65.265 Y40.482 F900.000 E4.01091 ; perimeter
G1 X64.951 Y41.197 E4.02181 ; perimeter
G1 X64.422 Y41.772 E4.03272 ; perimeter
G1 X63.736 Y42.144 E4.04363 ; perimeter
G1 X62.966 Y42.272 E4.05453 ; perimeter
G1 X62.195 Y42.144 E4.06544 ; perimeter
G1 X61.509 Y41.772 E4.07635 ; perimeter
G1 X60.980 Y41.197 E4.08725 ; perimeter
G1 X60.666 Y40.482 E4.09816 ; perimeter
G1 X60.602 Y39.704 E4.10907 ; perimeter
G1 X60.793 Y38.947 E4.11997 ; perimeter
G1 X61.220 Y38.293 E4.13088 ; perimeter
G1 X61.837 Y37.814 E4.14179 ; perimeter
G1 X62.575 Y37.560 E4.15269 ; perimeter
G1 X63.356 Y37.560 E4.16360 ; perimeter
G1 X64.095 Y37.814 E4.17451 ; perimeter
G1 X64.711 Y38.293 E4.18541 ; perimeter
G1 X65.138 Y38.947 E4.19632 ; perimeter
G1 X65.330 Y39.704 E4.20723 ; perimeter
G1 X64.980 Y39.733 F2400.000 ; move to first perimeter point
G1 X64.925 Y40.396 F900.000 E4.21652 ; perimeter
G1 X64.658 Y41.005 E4.22581 ; perimeter
G1 X64.207 Y41.495 E4.23511 ; perimeter
G1 X63.622 Y41.812 E4.24440 ; perimeter
G1 X62.966 Y41.921 E4.25369 ; perimeter
G1 X62.309 Y41.812 E4.26299 ; perimeter
G1 X61.724 Y41.495 E4.27228 ; perimeter
G1 X61.273 Y41.005 E4.28157 ; perimeter
G1 X61.006 Y40.396 E4.29087 ; perimeter
G1 X60.951 Y39.733 E4.30016 ; perimeter
G1 X61.115 Y39.088 E4.30945 ; perimeter
G1 X61.479 Y38.531 E4.31875 ; perimeter
G1 X62.004 Y38.122 E4.32804 ; perimeter
G1 X62.633 Y37.906 E4.33733 ; perimeter
G1 X63.298 Y37.906 E4.34663 ; perimeter
G1 X63.928 Y38.122 E4.35592 ; perimeter
G1 X64.453 Y38.531 E4.36521 ; perimeter
G1 X64.817 Y39.088 E4.37451 ; perimeter
G1 X64.980 Y39.733 E4.38380 ; perimeter
G1 X64.630 Y39.762 F2400.000 ; move to first perimeter point
G1 X64.585 Y40.310 F900.000 E4.39148 ; perimeter
G1 X64.364 Y40.814 E4.39916 ; perimeter
G1 X63.992 Y41.218 E4.40684 ; perimeter
G1 X63.508 Y41.480 E4.41452 ; perimeter
G1 X62.966 Y41.570 E4.42220 ; perimeter
G1 X62.423 Y41.480 E4.42988 ; perimeter
G1 X61.940 Y41.218 E4.43756 ; perimeter
G1 X61.567 Y40.814 E4.44524 ; perimeter
G1 X61.346 Y40.310 E4.45292 ; perimeter
G1 X61.301 Y39.762 E4.46060 ; perimeter
G1 X61.436 Y39.229 E4.46828 ; perimeter
G1 X61.737 Y38.769 E4.47596 ; perimeter
G1 X62.171 Y38.431 E4.48364 ; perimeter
G1 X62.691 Y38.252 E4.49132 ; perimeter
G1 X63.241 Y38.252 E4.49900 ; perimeter
G1 X63.761 Y38.431 E4.50668 ; perimeter
G1 X64.195 Y38.769 E4.51436 ; perimeter
G1 X64.495 Y39.229 E4.52204 ; perimeter
G1 X64.630 Y39.762 E4.52972 ; perimeter
G1 F1200.000 E0.52972 ; retract
G92 E0 ; reset extrusion distance
G1 X63.356 Y77.760 F2400.000 ; move to first perimeter point
G1 F1200.000 E4.00000 ; compensate retraction
G1 X64.095 Y78.014 F900.000 E4.01091 ; perimeter
G1 X64.711 Y78.493 E4.02181 ; perimeter
G1 X65.138 Y79.147 E4.03272 ; perimeter
G1 X65.330 Y79.904 E4.04363 ; perimeter
G1 X65.265 Y80.682 E4.05453 ; perimeter
G1 X64.951 Y81.397 E4.06544 ; perimeter
G1 X64.423 Y81.972 E4.07635 ; perimeter
G1 X63.736 Y82.343 E4.08725 ; perimeter
G1 X62.966 Y82.472 E4.09816 ; perimeter
G1 X62.195 Y82.343 E4.10907 ; perimeter
G1 X61.509 Y81.972 E4.11997 ; perimeter
G1 X60.980 Y81.397 E4.13088 ; perimeter
G1 X60.666 Y80.682 E4.14179 ; perimeter
G1 X60.602 Y79.904 E4.15269 ; perimeter
G1 X60.793 Y79.147 E4.16360 ; perimeter
G1 X61.220 Y78.493 E4.17451 ; perimeter
G1 X61.837 Y78.014 E4.18541 ; perimeter
G1 X62.575 Y77.760 E4.19632 ; perimeter
G1 X63.356 Y77.760 E4.20723 ; perimeter
G1 X63.298 Y78.106 F2400.000 ; move to first perimeter point
G1 X63.928 Y78.322 F900.000 E4.21652 ; perimeter
G1 X64.453 Y78.731 E4.22581 ; perimeter
G1 X64.817 Y79.288 E4.23511 ; perimeter
G1 X64.980 Y79.933 E4.24440 ; perimeter
G1 X64.925 Y80.596 E4.25369 ; perimeter
G1 X64.658 Y81.205 E4.26299 ; perimeter
G1 X64.207 Y81.695 E4.27228 ; perimeter
G1 X63.622 Y82.012 E4.28157 ; perimeter
G1 X62.966 Y82.121 E4.29087 ; perimeter
G1 X62.309 Y82.012 E4.30016 ; perimeter
G1 X61.724 Y81.695 E4.30945 ; perimeter
G1 X61.273 Y81.205 E4.31875 ; perimeter
G1 X61.006 Y80.596 E4.32804 ; perimeter
G1 X60.951 Y79.933 E4.33733 ; perimeter
G1 X61.115 Y79.288 E4.34663 ; perimeter
G1 X61.479 Y78.731 E4.35592 ; perimeter
G1 X62.004 Y78.322 E4.36521 ; perimeter
G1 X62.633 Y78.106 E4.37451 ; perimeter
G1 X63.298 Y78.106 E4.38380 ; perimeter
G1 X63.241 Y78.453 F2400.000 ; move to first perimeter point
G1 X63.761 Y78.631 F900.000 E4.39148 ; perimeter
G1 X64.195 Y78.969 E4.39916 ; perimeter
G1 X64.495 Y79.429 E4.40684 ; perimeter
G1 X64.630 Y79.962 E4.41452 ; perimeter
G1 X64.585 Y80.510 E4.42220 ; perimeter
G1 X64.364 Y81.014 E4.42988 ; perimeter
G1 X63.992 Y81.418 E4.43756 ; perimeter
G1 X63.508 Y81.680 E4.44524 ; perimeter
G1 X62.966 Y81.770 E4.45292 ; perimeter
G1 X62.423 Y81.680 E4.46060 ; perimeter
G1 X61.940 Y81.418 E4.46828 ; perimeter
G1 X61.779 Y81.243 E4.47160 ; perimeter
G1 X61.779 Y81.243 E4.47160 ; perimeter
G1 X61.567 Y81.014 E4.47596 ; perimeter
G1 X61.346 Y80.510 E4.48364 ; perimeter
G1 X61.301 Y79.962 E4.49132 ; perimeter
G1 X61.436 Y79.429 E4.49900 ; perimeter
G1 X61.737 Y78.969 E4.50668 ; perimeter
G1 X62.171 Y78.631 E4.51436 ; perimeter
G1 X62.691 Y78.453 E4.52204 ; perimeter
G1 X63.241 Y78.453 E4.52972 ; perimeter
G1 F1200.000 E0.52972 ; retract
G92 E0 ; reset extrusion distance
G1 X100.802 Y79.904 F2400.000 ; move to first perimeter point
G1 F1200.000 E4.00000 ; compensate retraction
G1 X100.993 Y79.147 F900.000 E4.01091 ; perimeter
G1 X101.420 Y78.493 E4.02181 ; perimeter
G1 X102.037 Y78.014 E4.03272 ; perimeter
G1 X102.775 Y77.760 E4.04363 ; perimeter
G1 X103.556 Y77.760 E4.05453 ; perimeter
G1 X104.295 Y78.014 E4.06544 ; perimeter
G1 X104.911 Y78.493 E4.07635 ; perimeter
G1 X105.338 Y79.147 E4.08725 ; perimeter
G1 X105.530 Y79.904 E4.09816 ; perimeter
G1 X105.465 Y80.682 E4.10907 ; perimeter
G1 X105.151 Y81.397 E4.11997 ; perimeter
G1 X104.623 Y81.972 E4.13088 ; perimeter
G1 X103.936 Y82.343 E4.14179 ; perimeter
G1 X103.166 Y82.472 E4.15269 ; perimeter
G1 X102.395 Y82.343 E4.16360 ; perimeter
G1 X101.709 Y81.972 E4.17451 ; perimeter
G1 X101.180 Y81.397 E4.18541 ; perimeter
G1 X100.866 Y80.682 E4.19632 ; perimeter
G1 X100.802 Y79.904 E4.20723 ; perimeter
G1 X101.151 Y79.933 F2400.000 ; move to first perimeter point
G1 X101.315 Y79.288 F900.000 E4.21652 ; perimeter
G1 X101.679 Y78.731 E4.22581 ; perimeter
G1 X102.204 Y78.322 E4.23511 ; perimeter
G1 X102.833 Y78.106 E4.24440 ; perimeter
G1 X103.498 Y78.106 E4.25369 ; perimeter
G1 X104.128 Y78.322 E4.26299 ; perimeter
G1 X104.653 Y78.731 E4.27228 ; perimeter
G1 X105.017 Y79.288 E4.28157 ; perimeter
G1 X105.180 Y79.933 E4.29087 ; perimeter
G1 X105.125 Y80.596 E4.30016 ; perimeter
G1 X104.858 Y81.205 E4.30945 ; perimeter
G1 X104.407 Y81.695 E4.31875 ; perimeter
G1 X103.822 Y82.012 E4.32804 ; perimeter
G1 X103.166 Y82.121 E4.33733 ; perimeter
G1 X102.509 Y82.012 E4.34663 ; perimeter
G1 X101.924 Y81.695 E4.35592 ; perimeter
G1 X101.473 Y81.205 E4.36521 ; perimeter
G1 X101.206 Y80.596 E4.37451 ; perimeter
G1 X101.151 Y79.933 E4.38380 ; perimeter
G1 X101.501 Y79.962 F2400.000 ; move to first perimeter point
G1 X101.636 Y79.429 F900.000 E4.39148 ; perimeter
G1 X101.937 Y78.969 E4.39916 ; perimeter
